icon/cg/arrow-align-h.svg

<svg viewBox="0 0 24 24" fill="none" xmlns="http://www.w3.org/2000/svg" height="1em" width="1em">
  <path d="M13 7H11V17H13V7Z" fill="currentColor"/>
  <path d="M5.99996 7.75732L7.41418 9.17154L5.58572 11L9.99996 11V13L5.58579 13L7.41418 14.8284L5.99996 16.2426L1.75732 12L5.99996 7.75732Z" fill="currentColor"/>
  <path d="M18 16.2427L16.5858 14.8285L18.4143 13H14V11L18.4142 11L16.5858 9.17161L18 7.75739L22.2427 12L18 16.2427Z" fill="currentColor"/>
</svg>

<svg width="24" height="24" fill="none" xmlns="http://www.w3.org/2000/svg"><path d="M13 7h-2v10h2V7ZM6 7.757l1.414 1.415L5.586 11H10v2H5.586l1.828 1.828L6 16.243 1.757 12 6 7.757ZM18 16.243l-1.414-1.414L18.414 13H14v-2h4.414l-1.828-1.828L18 7.757 22.243 12 18 16.243Z" fill="currentColor"/></svg>
